X: 4
T:Silver Spire, The
M:C|
L:1/8
R:reel
K:D
D2  (3FED DFA2|dcde fdAF|GABG FADF|(3GFE (3FED CE A,2 |
D2  (3FED DFA2|dcde fdAF|GABG FADF|EA,CE D3  z:|
|:A,B,CD EFGE|(3FED EF GABc|dcBA Bcde|fdgf e3  A|
d2 fd c2 ec|dcdB AFDF|GABG FADF|EA,CE D3  z:|
